X:1
T:Jesus, My Saviour
T:Jesus, My Saviour
T:May Moody, 1893, arr. Charles J. Herceg, Jr.
T:Charles J. Herceg, Jr. 2003
T:Public Domain Courtesy of the Cyber Hymnal™
C:May Moody, 1893, arr. Charles J. Herceg, Jr.
Z:Public Domain
Z:Courtesy of the Cyber Hymnal™
%%score ( 1 2 ) ( 3 4 )
L:1/8
Q:1/4=125
M:3/4
K:F
V:1 treble 
V:2 treble 
V:3 bass 
V:4 bass 
V:1
 C2 [CF]2 [CG]2 | [FA]2 [FA]2 [FA]2 | [FB]2 F2 [FG]2 | [FA]6 | [EA]2 [EG]2 [^D^F]2 | G2 A2 [EG]2 | %6
w: 1.~Je- sus, my|Sav- iour, how|migh- ty Thou|art;|Ho- ly and|pre- cious, You|
w: 2.~Je- sus, my|Sav- iour, the|Truth and the|Way,|Giv- er of|life and my|
w: 3.~When I am|wea- ry, and|can’t find my|way,|Speak to my|heart and then|
w: 4.~Je- sus my|Sav- ior for-|ev- er will|be;|My heart will|sing and give|
 [CF]2 [=B,E]2 [B,D]2 | !fermata!G6 | C2 [CF]2 [CG]2 | [FA]2 [FA]2 [FA]2 | [FB]2 [FB]2 [F=B]2 | %11
w: dwell in my|heart;|The blood Thou|shed- dest, Thou|shed- dest for|
w: hope and my|stay;|I’ll trust Thy|wis- dom and|walk in Thy|
w: help me o-|bey;|Safe in Thy|bos- om, I|watch de- vils|
w: praise un- to|Thee;|Sin, sad- ness,|sor- row will|be in the|
 [Fc]6 | [_Ec]2 [EB]2 [EA]2 | D2 [DG]3 [DF] | [CE]2 [EA]2 [EG]2 | [CF]6 |] %16
w: me;|Cleans- ing for-|ev- er, Thy|blood sets me|free.|
w: will;|Draw my soul|clos- er, and|keep my heart|still.|
w: flee:|Je- sus my|Sav- iour will|give vic- to-|ry.|
w: past;|Life with the|Sav- iour will|be mine at|last.|
V:2
 x6 | x6 | x6 | x6 | x6 | E4 x2 | x6 | (C4 C2) | x6 | x6 | x6 | x6 | x6 | x6 | x6 | x6 |] %16
V:3
 [F,A,]2 [F,A,]2 [F,B,]2 | [F,C]2 [F,C]2 [F,^C]2 | [F,D]2 [F,D]2 [F,D]2 | [F,C]6 | %4
 [C,C]2 [C,B,]2 [C,A,]2 | B,2 C2 [C,B,]2 | [F,A,]2 [F,_A,]2 [F,=A,]2 | ([E,G,]4 B,2) | %8
 [F,A,]2 [F,A,]2 [F,B,]2 | [F,C]2 [F,C]2 [_E,C]2 | [D,B,]2 [D,B,]2 [_D,^G,]2 | [C,A,]6 | %12
 [F,A,]2 [F,G,]2 F,2 | [B,,G,]2 [B,,G,]3 [=B,,G,] | [C,G,]2 [C,C]2 [C,B,]2 | [F,,F,A,]6 |] %16
V:4
 x6 | x6 | x6 | x6 | x6 | C,4 x2 | x6 | x6 | x6 | x6 | x6 | x6 | x6 | x6 | x6 | x6 |] %16

